X:12
T:Gavotte ton simple
R:Gavotte
C:trad
A:Bretagne
O:France
M:6/8
L:1/8
Q:1/4=220
K:G
B2 AG2A|B2GA3|A2 B cBA|B3B3:|
|:B2 AG2A|B2GA2F|F2 G ABA|G3 G3:||
